!!!COM:	Bach, Johann Sebastian
!!!OMV:	Jesu Leiden, Pein und Tod
!!!OTL:	Jesu Leiden, Pein und Tod
**kern	**fb	**kern	**kern	**kern	**kern
*part5	*part5	*part4	*part3	*part2	*part1
*staff5	*	*staff4	*staff3	*staff2	*staff1
*I"Continuo	*	*I"Voice	*I"Voice	*I"Voice	*I"Voice
*I'Cont.	*	*I'V	*I'V	*I'V	*I'V
*clefF4	*	*clefF4	*clefGv2	*clefG2	*clefG2
*Trd0c0	*	*	*	*	*
*k[f#c#g#]	*	*k[f#c#g#]	*k[f#c#g#]	*k[f#c#g#]	*k[f#c#g#]
*M4/4	*	*M4/4	*M4/4	*M4/4	*M4/4
=	=	=	=	=	=
4F#	.	4F#	4f#	4a	4cc#
4E#X	6 5	4E#X	4c#	4g#	4b
4F#	.	4F#	4c#	4f#	4a
4G#	6	4G#	4B	4en	4b
=3	=3	=3	=3	=3	=3
4A	.	4A	4A	4e	4cc#
4F#	6	4F#	4A	4f#	4dd
2C#;	6 nr5	2C#;	2A;	2gn;	2ee;
=4	=4	=4	=4	=4	=4
4D	.	4D	4d	4f#	4ff#
4E	6	4E	4c#	4g#	4ee
8F#L	6 5	8F#L	8c#L	8aL	4dd
8G#J	6 5	8G#J	8BJ	8bJ	.
4A	.	4A	8c#L	8eL	8cc#L
.	.	.	8dJ	8aJ	8bJ
=5	=5	=5	=5	=5	=5
2E	4	2E	4e	4a	2b
.	3	.	8dL	4g#	.
.	.	.	8c#J	.	.
2AA;	.	2AA;	2c#;	2e;	2a;
=6	=6	=6	=6	=6	=6
4A	.	4A	4e	4a	4cc#
4G#	6	4G#	4e	4b	4ee
8F#L	6	8F#L	4f#	4a	4dd
8G#J	.	8G#J	.	.	.
4A	.	4A	4e	4a	4cc#
=7	=7	=7	=7	=7	=7
4E#X	7	4E#X	4d	4g#	4b
4F#	.	4F#	4c#	4f#	4a
2C#;	#	2C#;	2c#;	2e#X;	2g#;
=8	=8	=8	=8	=8	=8
4F#	.	4F#	4c#	4f#	4a
4G#	6	4G#	4B	4en	4b
4A	.	4A	8AL	4e	4cc#
.	.	.	8BJ	.	.
4A#X	6	4A#X	4c#	4f#	8cc#
.	.	.	.	.	16ddLL
.	.	.	.	.	16eeJJ
=9	=9	=9	=9	=9	=9
!!linebreak:original
2B	.	2B	4c#	8f#L	2dd
.	.	.	.	8aJ	.
.	.	.	8BL	8g#L	.
.	.	.	8AnJ	8f#J	.
2E#X;	6 5	2E#X;	2B;	2g#;	2cc#;
=10	=10	=10	=10	=10	=10
8F#L	.	8F#L	4A	4f#	8cc#L
8G#	.	8G#	.	.	8bJ
8A	6	8A	4a	4f#	8cc#L
8BJ	.	8BJ	.	.	8ddJ
4c#	.	4c#	4g#	8c#L	4ee
.	.	.	.	8g#J	.
8F#L	6	8F#L	4f#	8aL	4dd
8G#J	.	8G#J	.	8bJ	.
=11	=11	=11	=11	=11	=11
4A	.	4A	4e	4a	4cc#
4E	.	4E	4e	4g#	4b
2AA;	.	2AA;	2e;	2a;	2cc#;
=12	=12	=12	=12	=12	=12
4A	#4| 2	4A	4d#X	4f#	4b
4G#	6	4G#	4e	4e	4b
4Gn	4 2	4Gn	8eL	4a	8cc#L
.	.	.	8f#J	.	8dd#XJ
8F#L	.	8F#L	4gn	4b	4ee
8EJ	n	8EJ	.	.	.
=13	=13	=13	=13	=13	=13
4AA#X	6 5	4A#X	4f#	4cc#	4ee
4BB	#	4B	4B	8bL	4dd#X
.	.	.	.	8aJ	.
2E;	.	2E;	2B;	2g#;	2ee;
=14	=14	=14	=14	=14	=14
4C#	.	4C#	4c#	4g#	4ee
4F#	.	4F#	4c#	4a	4cc#
4D	nr7	4D	4cn	4a	4.ff#
4Gn	7	4Gn	8BL	4gn	.
.	6	.	8A#XJ	.	8ee
=15	=15	=15	=15	=15	=15
!!pagebreak:original
4E	7	4E	4B	8gnL	4dd
.	.	.	.	8f#J	.
4F#	#	4F#	4A#X	4e	8cc#L
.	.	.	.	.	8bJ
2BB;	.	2BB;	2B;	2d;	2b;
=16	=16	=16	=16	=16	=16
8F#L	3	8F#L	4A	4f#	4cc#
8E	._	8E	.	.	.
8D	..	8D	4A	8eL	8cc#
8C#J	6	8C#J	.	8f#J	16ddLL
.	.	.	.	.	16eeJJ
4BB	6	4BB	4B	4g#	4dd
8C#L	6	8C#L	4E	4a	8cc#L
8DJ	.	8DJ	.	.	8bJ
=17	=17	=17	=17	=17	=17
2E	4	2E	4e	8aL	2b
.	.	.	.	8f#J	.
.	3	.	16dLL	4g#	.
.	.	.	16c#J	.	.
.	.	.	8dJ	.	.
2AA;	.	2AA;	2c#;	2e;	2a;
=||	=||	=||	=||	=||	=||
*-	*-	*-	*-	*-	*-
!!!system-decoration: s1,s2,s3,s4,s5
